svg/file/photo_album_fill.svg

<?xml version="1.0" encoding="UTF-8"?>
<svg width="24px" height="24px" viewBox="0 0 24 24" version="1.1" xmlns="http://www.w3.org/2000/svg" xmlns:xlink="http://www.w3.org/1999/xlink">
    <title>photo_album_fill</title>
    <g id="页面-1" stroke="none" stroke-width="1" fill="none" fill-rule="evenodd">
        <g id="File" transform="translate(-432.000000, -336.000000)">
            <g id="photo_album_fill" transform="translate(432.000000, 336.000000)">
                 <path d="M24,0 L24,24 L0,24 L0,0 L24,0 Z M12.5934901,23.257841 L12.5819402,23.2595131 L12.5108777,23.2950439 L12.4918791,23.2987469 L12.4918791,23.2987469 L12.4767152,23.2950439 L12.4056548,23.2595131 C12.3958229,23.2563662 12.3870493,23.2590235 12.3821421,23.2649074 L12.3780323,23.275831 L12.360941,23.7031097 L12.3658947,23.7234994 L12.3769048,23.7357139 L12.4804777,23.8096931 L12.4953491,23.8136134 L12.4953491,23.8136134 L12.5071152,23.8096931 L12.6106902,23.7357139 L12.6232938,23.7196733 L12.6232938,23.7196733 L12.6266527,23.7031097 L12.609561,23.275831 C12.6075724,23.2657013 12.6010112,23.2592993 12.5934901,23.257841 L12.5934901,23.257841 Z M12.8583906,23.1452862 L12.8445485,23.1473072 L12.6598443,23.2396597 L12.6498822,23.2499052 L12.6498822,23.2499052 L12.6471943,23.2611114 L12.6650943,23.6906389 L12.6699349,23.7034178 L12.6699349,23.7034178 L12.678386,23.7104931 L12.8793402,23.8032389 C12.8914285,23.8068999 12.9022333,23.8029875 12.9078286,23.7952264 L12.9118235,23.7811639 L12.8776777,23.1665331 C12.8752882,23.1545897 12.8674102,23.1470016 12.8583906,23.1452862 L12.8583906,23.1452862 Z M12.1430473,23.1473072 C12.1332178,23.1423925 12.1221763,23.1452606 12.1156365,23.1525954 L12.1099173,23.1665331 L12.0757714,23.7811639 C12.0751323,23.7926639 12.0828099,23.8018602 12.0926481,23.8045676 L12.108256,23.8032389 L12.3092106,23.7104931 L12.3186497,23.7024347 L12.3186497,23.7024347 L12.3225043,23.6906389 L12.340401,23.2611114 L12.337245,23.2485176 L12.337245,23.2485176 L12.3277531,23.2396597 L12.1430473,23.1473072 Z" id="MingCute" fill-rule="nonzero"></path>
                <path d="M5,3 C3.34315,3 2,4.34315 2,6 L2,16 C2,17.1046 2.89543,18 4,18 L4,6 C4,5.44772 4.44772,5 5,5 L19,5 C19,3.89543 18.1046,3 17,3 L5,3 Z M5,8 C5,6.89543 5.89543,6 7,6 L20,6 C21.1046,6 22,6.89543 22,8 L22,19.3333 C22,20.4379 21.1046,21.3333 20,21.3333 L7,21.3333 C5.89543,21.3333 5,20.4379 5,19.3333 L5,8 Z M20,8 L7,8 L7,15.848 L10.8483,11.9997 C11.3364,11.5115 12.1279,11.5115 12.6161,11.9997 L15.857,15.2406 L16.7409,14.3567 C17.229,13.8686 18.0205,13.8686 18.5086,14.3567 L20,15.8481 L20,8 Z M18,11 C18,11.8284 17.3284,12.5 16.5,12.5 C15.6716,12.5 15,11.8284 15,11 C15,10.1716 15.6716,9.5 16.5,9.5 C17.3284,9.5 18,10.1716 18,11 Z" id="形状" fill="#09244B"></path>
            </g>
        </g>
    </g>
</svg>

<svg xmlns="http://www.w3.org/2000/svg" width="24" height="24"><g fill="none" fill-rule="evenodd"><path d="M24 0v24H0V0h24ZM12.593 23.258l-.011.002-.071.035-.02.004-.014-.004-.071-.035c-.01-.004-.019-.001-.024.005l-.004.01-.017.428.005.02.01.013.104.074.015.004.012-.004.104-.074.012-.016.004-.017-.017-.427c-.002-.01-.009-.017-.017-.018Zm.265-.113-.013.002-.185.093-.01.01-.003.011.018.43.005.012.008.007.201.093c.012.004.023 0 .029-.008l.004-.014-.034-.614c-.003-.012-.01-.02-.02-.022Zm-.715.002a.023.023 0 0 0-.027.006l-.006.014-.034.614c0 .012.007.02.017.024l.015-.002.201-.093.01-.008.004-.011.017-.43-.003-.012-.01-.01-.184-.092Z"/><path fill="#09244B" d="M5 3a3 3 0 0 0-3 3v10a2 2 0 0 0 2 2V6a1 1 0 0 1 1-1h14a2 2 0 0 0-2-2H5Zm0 5a2 2 0 0 1 2-2h13a2 2 0 0 1 2 2v11.333a2 2 0 0 1-2 2H7a2 2 0 0 1-2-2V8Zm15 0H7v7.848L10.848 12a1.25 1.25 0 0 1 1.768 0l3.241 3.24.884-.883a1.25 1.25 0 0 1 1.768 0L20 15.848V8Zm-2 3a1.5 1.5 0 1 1-3 0 1.5 1.5 0 0 1 3 0Z"/></g></svg>
